public/img/finanzierung-bg.svg

<svg fill="none" height="598" viewBox="0 0 1918 598" width="1918" xmlns="http://www.w3.org/2000/svg"><path d="m-68.5 595.5s148.5-7 178.5-42 161.5-56 198.5-72 118-30 167-92 90-131 158-145 159.56-28.61 199.28-34.3c39.72-5.7 138.72-1.7 192.72 13.3s146 125 175 163c19.61 25.69 73.51 47.73 106.36 59.31 16.8 5.92 91.64 4.69 114.64-46.31 22.51-49.9 35.64-96.12 74-120 45.34-28.23 144.5-86 253.5-105.5s168-143.5 186-172.5" stroke="#211a39" stroke-dasharray="12 12" stroke-miterlimit="10" stroke-width="5"/></svg>

<svg width="1918" height="598" viewBox="0 0 1918 598" fill="none" xmlns="http://www.w3.org/2000/svg">
<path d="M-68.5 595.5C-68.5 595.5 80 588.5 110 553.5C140 518.5 271.5 497.5 308.5 481.5C345.5 465.5 426.5 451.5 475.5 389.5C524.5 327.5 565.5 258.5 633.5 244.5C701.5 230.5 793.06 215.89 832.78 210.2C872.5 204.5 971.5 208.5 1025.5 223.5C1079.5 238.5 1171.5 348.5 1200.5 386.5C1220.11 412.19 1274.01 434.23 1306.86 445.81C1323.66 451.73 1398.5 450.5 1421.5 399.5C1444.01 349.6 1457.14 303.38 1495.5 279.5C1540.84 251.27 1640 193.5 1749 174C1858 154.5 1917 30.5 1935 1.5" stroke="#211A39" stroke-width="5" stroke-miterlimit="10" stroke-dasharray="12 12"/>
</svg>
